Numix-GalliumOS/24/panel/redshift-status-on.svg

<?xml version="1.0" encoding="UTF-8" standalone="no"?>
<svg
   xmlns:dc="http://purl.org/dc/elements/1.1/"
   xmlns:cc="http://creativecommons.org/ns#"
   xmlns:rdf="http://www.w3.org/1999/02/22-rdf-syntax-ns#"
   xmlns:svg="http://www.w3.org/2000/svg"
   xmlns="http://www.w3.org/2000/svg"
   xmlns:sodipodi="http://sodipodi.sourceforge.net/DTD/sodipodi-0.dtd"
   xmlns:inkscape="http://www.inkscape.org/namespaces/inkscape"
   width="24"
   viewBox="0 0 6.7733335 6.7733335"
   height="24"
   id="svg2"
   version="1.1"
   inkscape:version="0.91 r"
   sodipodi:docname="redshift-status-on.svg">
  <metadata
     id="metadata34">
    <rdf:RDF>
      <cc:Work
         rdf:about="">
        <dc:format>image/svg+xml</dc:format>
        <dc:type
           rdf:resource="http://purl.org/dc/dcmitype/StillImage" />
        <dc:title />
      </cc:Work>
    </rdf:RDF>
  </metadata>
  <sodipodi:namedview
     pagecolor="#ffffff"
     bordercolor="#666666"
     borderopacity="1"
     objecttolerance="10"
     gridtolerance="10"
     guidetolerance="10"
     inkscape:pageopacity="0"
     inkscape:pageshadow="2"
     inkscape:window-width="1366"
     inkscape:window-height="747"
     id="namedview32"
     showgrid="false"
     inkscape:zoom="17.967023"
     inkscape:cx="1.4668046"
     inkscape:cy="9.2978582"
     inkscape:window-x="0"
     inkscape:window-y="21"
     inkscape:window-maximized="1"
     inkscape:current-layer="svg2" />
  <defs
     id="defs4" />
  <path
     sodipodi:nodetypes="ssssssssscsccccscsscsscscscsscssscsscscscsscsssssssss"
     style="fill:#ececec;fill-opacity:1"
     id="path3012-0"
     d="M 4.656666,2.4459277 C 4.656666,2.3048168 4.618632,2.1735052 4.5425645,2.0519932 4.4664969,1.9304811 4.3672782,1.8310173 4.2449084,1.7536024 4.1225387,1.6761875 3.9869398,1.6154314 3.8381118,1.5713342 3.6892837,1.5272371 3.538802,1.5051885 3.3866667,1.5051885 c -0.1521354,0 -0.3026171,0.022049 -0.4514451,0.066146 -0.1488281,0.044097 -0.2844269,0.104853 -0.4067967,0.1822679 -0.1223697,0.077415 -0.2215884,0.1768787 -0.2976561,0.2983908 -0.076068,0.121512 -0.1141015,0.2528236 -0.1141015,0.3939345 0,0.1979472 0.074965,0.3743358 0.2248957,0.5291658 0.022049,0.021559 0.055673,0.053897 0.1008724,0.097014 0.0452,0.043117 0.078824,0.075455 0.1008723,0.097014 0.2822221,0.2998606 0.4376647,0.5918817 0.4663279,0.8760633 l 0.7540621,0 C 3.7923607,3.7610027 3.9478036,3.4689816 4.2300256,3.169121 4.2520746,3.147562 4.2856986,3.115224 4.330898,3.072107 4.376098,3.02899 4.409722,2.996652 4.4317703,2.975093 4.5817008,2.820263 4.656666,2.6438744 4.656666,2.4459272 Z m 0.4233332,0 c 0,0.3037804 -0.1135503,0.5664034 -0.3406509,0.7878691 C 4.6401293,3.3298308 4.5579986,3.4150851 4.4929552,3.4895602 4.4279122,3.5640352 4.3623172,3.6576194 4.2961714,3.7703121 4.2300254,3.8830048 4.192543,3.988348 4.1837236,4.0863417 c 0.1036284,0.054876 0.1554426,0.1352312 0.1554426,0.2410644 0,0.072515 -0.027561,0.1352313 -0.082682,0.1881478 0.055122,0.052917 0.082682,0.1156326 0.082682,0.1881479 0,0.1019134 -0.049609,0.1812883 -0.148828,0.2381246 0.028663,0.045077 0.042995,0.091134 0.042995,0.1381711 0,0.090154 -0.034726,0.1597296 -0.1041796,0.2087265 -0.069453,0.048997 -0.1548914,0.073495 -0.256315,0.073495 -0.044097,0.086234 -0.110243,0.15483 -0.1984374,0.2057867 -0.088194,0.050957 -0.1841058,0.076435 -0.2877342,0.076435 -0.1036284,0 -0.1995398,-0.025478 -0.2877342,-0.076435 C 3.010738,5.5170492 2.9445922,5.4484536 2.9004951,5.3622192 c -0.1014236,0 -0.1868619,-0.024498 -0.256315,-0.073495 -0.069453,-0.048997 -0.1041797,-0.1185724 -0.1041797,-0.2087265 0,-0.047037 0.014332,-0.093094 0.042995,-0.1381711 -0.099219,-0.056836 -0.148828,-0.1362112 -0.148828,-0.2381246 0,-0.072515 0.027561,-0.1352313 0.082682,-0.1881479 -0.055121,-0.052917 -0.082682,-0.1156325 -0.082682,-0.1881478 0,-0.1058332 0.051814,-0.186188 0.1554426,-0.2410644 C 2.5807903,3.988348 2.5433077,3.8830048 2.4771619,3.7703121 2.4110161,3.6576194 2.3454216,3.5640354 2.2803782,3.4895602 2.2153348,3.4150851 2.1332038,3.3298306 2.0339851,3.2337968 1.8068845,3.0123311 1.6933342,2.7497081 1.6933342,2.4459277 c 0,-0.1940275 0.049058,-0.3748258 0.1471744,-0.5423949 C 1.9386249,1.7359636 2.0676092,1.5968127 2.2274615,1.4860797 2.3873139,1.3753468 2.5681124,1.2881326 2.7698571,1.2244367 2.9716018,1.1607407 3.177205,1.1288927 3.3866667,1.1288927 c 0.2094617,0 0.4150649,0.031848 0.6168096,0.095544 0.2017447,0.063696 0.3825432,0.1509101 0.5423955,0.261643 0.1598524,0.110733 0.2888367,0.2498839 0.386953,0.4174531 0.098116,0.1675691 0.1471744,0.3483674 0.1471744,0.5423949 z"
     inkscape:connector-curvature="0" />
</svg>

<svg xmlns="http://www.w3.org/2000/svg" width="24" viewBox="0 0 6.7733335 6.7733335" height="24">
 <path d="m 4.657 2.446 c 0 -0.141 -0.038 -0.272 -0.114 -0.394 -0.076 -0.122 -0.175 -0.221 -0.298 -0.298 -0.122 -0.077 -0.258 -0.138 -0.407 -0.182 -0.149 -0.044 -0.299 -0.066 -0.451 -0.066 c -0.152 0 -0.303 0.022 -0.451 0.066 -0.149 0.044 -0.284 0.105 -0.407 0.182 -0.122 0.077 -0.222 0.177 -0.298 0.298 -0.076 0.122 -0.114 0.253 -0.114 0.394 0 0.198 0.075 0.374 0.225 0.529 0.022 0.022 0.056 0.054 0.101 0.097 0.045 0.043 0.079 0.075 0.101 0.097 0.282 0.3 0.438 0.592 0.466 0.876 l 0.754 0 c 0.029 -0.284 0.184 -0.576 0.466 -0.876 0.022 -0.022 0.056 -0.054 0.101 -0.097 0.045 -0.043 0.079 -0.075 0.101 -0.097 0.15 -0.155 0.225 -0.331 0.225 -0.529 m 0.423 0 c 0 0.304 -0.114 0.566 -0.341 0.788 c -0.099 0.096 -0.181 0.181 -0.246 0.256 -0.065 0.074 -0.131 0.168 -0.197 0.281 -0.066 0.113 -0.104 0.218 -0.112 0.316 c 0.104 0.055 0.155 0.135 0.155 0.241 0 0.073 -0.028 0.135 -0.083 0.188 0.055 0.053 0.083 0.116 0.083 0.188 0 0.102 -0.05 0.181 -0.149 0.238 0.029 0.045 0.043 0.091 0.043 0.138 0 0.09 -0.035 0.16 -0.104 0.209 -0.069 0.049 -0.155 0.073 -0.256 0.073 -0.044 0.086 -0.11 0.155 -0.198 0.206 -0.088 0.051 -0.184 0.076 -0.288 0.076 -0.104 0 -0.2 -0.025 -0.288 -0.076 c -0.088 -0.051 -0.154 -0.12 -0.198 -0.206 c -0.101 0 -0.187 -0.024 -0.256 -0.073 -0.069 -0.049 -0.104 -0.119 -0.104 -0.209 0 -0.047 0.014 -0.093 0.043 -0.138 -0.099 -0.057 -0.149 -0.136 -0.149 -0.238 0 -0.073 0.028 -0.135 0.083 -0.188 -0.055 -0.053 -0.083 -0.116 -0.083 -0.188 0 -0.106 0.052 -0.186 0.155 -0.241 c -0.009 -0.098 -0.046 -0.203 -0.112 -0.316 -0.066 -0.113 -0.132 -0.206 -0.197 -0.281 -0.065 -0.074 -0.147 -0.16 -0.246 -0.256 -0.227 -0.221 -0.341 -0.484 -0.341 -0.788 c 0 -0.194 0.049 -0.375 0.147 -0.542 c 0.098 -0.168 0.227 -0.307 0.387 -0.417 0.16 -0.111 0.341 -0.198 0.542 -0.262 0.202 -0.064 0.407 -0.096 0.617 -0.096 c 0.209 0 0.415 0.032 0.617 0.096 0.202 0.064 0.383 0.151 0.542 0.262 0.16 0.111 0.289 0.25 0.387 0.417 0.098 0.168 0.147 0.348 0.147 0.542 z" style="fill:#ececec;fill-opacity:1"/>
</svg>
